X: 25498
T: Margaret Ann Robertson
R: waltz
M: 3/4
K: Amajor
A,G,|A,4E2|C4A,2|D3FA2|E6|c3BA2|c4A2|B2G2E2|D2C2B,2|
A,4E2|C4A,2|D3FA2|E6|c3BA2|c4B2|A6|1 A4A,G,:|2 A4cd||
e4A2|a4A2|g4A2|f2e2cd|e4A2|a4c2|Be3^d2|e4cd|
e4A2|a4A2|f2g2a2|ec3A2|A,2C2E2|A2ce3|d2c2B2|A4cd|
e4A2|a4A2|gA2|f2e2cd|e4A2|a4c2|Be3^d2|e4A,G,|
A,4E2|C4A,2|D3FA2|E6|c3B AE|c4B2|A6|A4||

